X:1
T:James Gibb editions
T:Christus factus est - Anerio
T:#
%%score [ 1 2 3 4 ]
L:1/8
Q:1/4=108
M:4/4
K:Bb
V:1 treble nm="Soprano" snm="S"
V:2 treble nm="Alto" snm="A"
V:3 treble-8 nm="Tenor" snm="T"
V:4 bass nm="Bass" snm="B"
V:1
"^Christus factus est""^Felice Anerio\n(1560-1614)" (G6 F2 | B8) | A8 | ^F3 F F2 G2 | A4 A2 A2 | %5
w: Chri\- *||stus|fac- tus est pro|no- bis o-|
 (A2 G =F) G3 G |[M:4/4] A8 | z2 B4 A2 | G4 (F4 | =E4) D4 | B4 A4- | A2 G2 (^F2 G2- | %12
w: be\- * * * di-|ens|us- que|ad mor\-|* tem,|us- que|* ad mor\- *|
[M:4/4] G2 ^F =E F4) | G8 | (G4 A2 B2- | B2 A2) B4- | B2 B4 F2 | G8 | G8 ||[M:3/4] z2 G2 G2 | %20
w: |tem,|mor\- * *|* * tem|* au- tem|cru-|cis.|Prop- ter|
 A4 A2 | B4 c2 | z2 d2 c2 | (d c B A B c | A4) A2 | (B3 A G2) |[M:3/4] A2 (A2 =B2) | c4 c2 | %28
w: quod et|De- us|ex- al-|ta\- * * * * *|* vit|il\- * *|lum, et *|de- dit|
 e4 d2- | d2 (d2 ^c2) ||[M:4/4] d8 | G2 G2 c3 B |[M:4/4] AB (c4 =B2) | c6 c2 | d4 B2 =B2 | %35
w: il- li|* no\- *|men,|quod est su- per|om- ne no\- *|men, quod|est su- per|
 (c3 d e2) e2 | d8 | d8 |] %38
w: om\- * * ne|no-|men.|
V:2
 z4 (A4- | A2 G ^F G4- | G2 ^F=E) F4 | D3 D D2 =E2 | F4 F2 F2 | (F =E D C D3) D |[M:4/4] =E8 | %7
w: Chri\-||* * * stus|fac- tus est pro|no- bis o-|be\- * * * * di-|ens|
 F4 =E4 | D4 (^C2 D2- | D2 ^C2) D4 | z2 B,2 !courtesy!=C2 D2 | (G,4 D2 E2 |[M:4/4] D8 | D8 | %14
w: us- que|ad mor\- *|* * tem,|us- que ad|mor\- * *||tem,|
 (E4 F4 | G F E2) F4- | F4 E2 F2- | F2) E2 D4 | =E8 ||[M:3/4] z2 =E2 E2 | F2 F2 F2 | D2 D2 C2 | %22
w: mor\- *|* * * tem,|* au\- *|* tem cru-|cis.|Prop- ter|quod et De-|us ex- al-|
 D2 F4- | F2 F2 F2 | F4 F2 | (F4 =E2) |[M:3/4] F4 F2 | G4 G2 | G4 A2- | A2 G4 ||[M:4/4] ^F2 F2 G4 | %31
w: ta- vit,|* ex- al-|ta- vit|il\- *|lum, et|de- dit|il- li|* no-|men, quod est|
 z8 |[M:4/4] z4 z2 G2 | E4 F3 F | F2 F2 G3 F | (E3 F G2) _A2 | (^F2 G4 F2) | G8 |] %38
w: |quod|est su- per|om- ne, su- per|om\- * * ne|no\- * *|men.|
V:3
 z8 | d8 | d8 | A3 A A2 B2 | c4 d4 | d4 d4- |[M:4/4][K:treble-8] d2 (^c=B) c4 | d4 !courtesy!=c4 | %8
w: |Chri-|stus|fac- tus est pro|no- bis|o- be\-|* di\- * ens|us- que|
 B4 (A2 G2 | A4) D2 d2- | d2 e4 d2 | (c4 B4 |[M:4/4][K:treble-8] A8 | =B8 | (_B4 c2 d2 | e6 dc) | %16
w: ad mor\- *|* tem, us\-|* que ad|mor\- *||tem,|mor\- * *||
 d4 c2 c2 | =B2 c4 B2) | c8 ||[M:3/4][K:treble-8] z2 c2 c2 | c6 | z2 B2 A2 | B2 B2 z2 | z2 d2 d2 | %24
w: tem au- tem|cru\- * *|cis.|Prop- ter|quod|ex- al-|ta- vit,|ex- al-|
 (cB A B/ c/ d2- | d)c B4 |[M:3/4][K:treble-8] c2 (c2 d2) | e4 e2 | B4 A2- | A2 (B2 G2) || %30
w: ta\- * * * * *|* vit il-|lum, et *|de- dit|il- li|* no\- *|
[M:4/4] A2 d2 =B4 | c3 d e3 d |[M:4/4][K:treble-8] c2 c2 d4 | c2 c2 A4 | B3 A G4 | G6 (c2- | %36
w: men, quod est|su- per om\- *|* ne no-|men, quod est|su- per om-|ne no\-|
 c2 B2 A4) | =B8 |] %38
w: |men.|
V:4
 z8 | G,8 | D,8 | D,3 D, D,2 G,2 | F,4 F,2 D,2 | B,6 B,2 |[M:4/4] A,8 | z8 | z8 | z8 | G,4 F,4 | %11
w: |Chri-|stus|fac- tus est pro|no- bis o-|be- di-|ens||||us- que|
 E,4 (D,2 C,2 |[M:4/4] D,8 | G,,8 | (E,6 D,2 | C,4) B,,2 B,2- | B,2 B,2 B,2 _A,2 | G,8 | C,8 || %19
w: ad mor\- *||tem,|mor\- *|* tem, mor\-|* tem au- tem|cru-|cis.|
[M:3/4] z2 C,2 C,2 | F,4 F,2 | B,,4 F,2 | z2 B,2 A,2 | B,2 B,, C, D, =E, | F,4) D,2 | G,6 | %26
w: Prop- ter|quod et|De- us|ex- al-|ta\- * * * *|* vit|il-|
[M:3/4] F,4 D,2 | C,4 C,2 | G,4 F,2- | F,2 E,4 ||[M:4/4] D,4 z2 G,2 | E,4 C,2 C,2 | %32
w: lum, et|de- dit|il- li|* no-|men, quod|est su- per|
[M:4/4] F,2 _A,2 G,4 | C,4 z2 F,2 | D,4 E,3 D, | C,6 C,2 | D,8 | G,,8 |] %38
w: om- ne no-|men, quod|est su- per|om- ne|no-|men.|

